public/img/filter/soup.svg

<svg width="100" height="100" viewBox="0 0 100 100" fill="none" xmlns="http://www.w3.org/2000/svg">
<rect x="1" y="1" width="98" height="98" rx="14" stroke="#234cad" stroke-width="2"/>
<path d="M43.5968 24.298C43.5968 23.7682 43.1527 23.314 42.6346 23.314C42.1165 23.314 41.6724 23.7682 41.6724 24.298C41.6724 25.8877 41.3023 26.6447 40.8582 27.5531C40.3401 28.5371 39.748 29.5969 39.748 31.7165C39.748 33.836 40.3401 34.8958 40.8582 35.8799C41.3023 36.7883 41.6724 37.5452 41.6724 39.1349C41.6724 39.6648 42.1165 40.119 42.6346 40.119C43.1527 40.119 43.5968 39.6648 43.5968 39.1349C43.5968 37.0154 43.0047 35.9556 42.4866 34.9715C42.0425 34.0631 41.6724 33.3061 41.6724 31.7165C41.6724 30.1268 42.0425 29.3698 42.4866 28.4615C43.0047 27.5531 43.5968 26.4176 43.5968 24.298Z" fill="#234cad"/>
<path d="M51.5905 24.298C51.5905 23.7682 51.1464 23.314 50.6283 23.314C50.1102 23.314 49.6661 23.7682 49.6661 24.298C49.6661 25.8877 49.296 26.6447 48.8519 27.5531C48.3338 28.5371 47.7417 29.5969 47.7417 31.7165C47.7417 33.836 48.3338 34.8958 48.8519 35.8799C49.296 36.7883 49.6661 37.5452 49.6661 39.1349C49.6661 39.6648 50.1102 40.119 50.6283 40.119C51.1464 40.119 51.5905 39.6648 51.5905 39.1349C51.5905 37.0154 50.9984 35.9556 50.4803 34.9715C50.0362 34.0631 49.6661 33.3061 49.6661 31.7165C49.6661 30.1268 50.0362 29.3698 50.4803 28.4615C51.0724 27.5531 51.5905 26.4176 51.5905 24.298Z" fill="#234cad"/>
<path d="M58.6574 23.9841C58.6574 23.4542 58.2133 23 57.6952 23C57.1771 23 56.733 23.4542 56.733 23.9841C56.733 25.5737 56.3629 26.3307 55.9188 27.2391C55.4007 28.2232 54.8086 29.283 54.8086 31.4025C54.8086 33.5221 55.4007 34.5818 55.9188 35.5659C56.3629 36.4743 56.733 37.2313 56.733 38.8209C56.733 39.3508 57.1771 39.805 57.6952 39.805C58.2133 39.805 58.6574 39.3508 58.6574 38.8209C58.6574 36.7014 58.0653 35.6416 57.5472 34.6575C57.1031 33.7492 56.733 32.9922 56.733 31.4025C56.733 29.8128 57.1031 29.0559 57.5472 28.1475C58.1393 27.2391 58.6574 26.1036 58.6574 23.9841Z" fill="#234cad"/>
<path d="M35.8772 70.3984V71.6852C35.8772 74.0319 37.7276 76 40.0962 76H59.1183C61.4128 76 63.3372 74.1076 63.3372 71.6852V70.3984C72.5152 65.2509 78.2145 55.4858 78.2145 44.7366C78.2145 44.2068 77.7704 43.7526 77.2523 43.7526H21.9622C21.4441 43.7526 21 44.2068 21 44.7366C21 55.4858 26.6252 65.2509 35.8772 70.3984ZM61.8569 68.9601C61.5608 69.1115 61.3388 69.49 61.3388 69.8685V71.6852C61.3388 72.9721 60.3026 74.0319 59.0443 74.0319H40.0221C38.7639 74.0319 37.7276 72.9721 37.7276 71.6852V69.8685C37.7276 69.49 37.5056 69.1872 37.2095 68.9601C30.5481 65.4023 25.737 59.195 23.8126 52.0037H49.5332H75.2538C73.3294 59.195 68.5924 65.4023 61.8569 68.9601ZM76.216 45.7207C76.142 47.159 75.994 48.5973 75.6979 50.0355H23.3685C23.0725 48.5973 22.9244 47.159 22.8504 45.7207H76.216Z" fill="#234cad"/>
</svg>

<svg width="60" height="60" viewBox="0 0 100 100" fill="none" xmlns="http://www.w3.org/2000/svg">
  <rect x="1" y="1" width="98" height="98" rx="14" stroke="#234cad" stroke-width="2"/>
  <path d="M43.6 24.3a1 1 0 00-.97-.99 1 1 0 00-.96.99c0 1.59-.37 2.34-.81 3.25-.52.99-1.11 2.05-1.11 4.17s.59 3.18 1.1 4.16c.45.9.82 1.67.82 3.25a1 1 0 00.96.99 1 1 0 00.97-.99c0-2.11-.6-3.17-1.11-4.16-.45-.9-.82-1.66-.82-3.25 0-1.6.37-2.35.82-3.26a7.53 7.53 0 001.1-4.16zM51.59 24.3a1 1 0 00-.96-.99 1 1 0 00-.96.99c0 1.59-.37 2.34-.82 3.25-.52.99-1.1 2.05-1.1 4.17s.58 3.18 1.1 4.16c.45.9.82 1.67.82 3.25a1 1 0 00.96.99 1 1 0 00.96-.99c0-2.11-.6-3.17-1.11-4.16-.44-.9-.81-1.66-.81-3.25 0-1.6.37-2.35.81-3.26.6-.9 1.11-2.04 1.11-4.16zM58.66 23.98a1 1 0 00-.96-.98 1 1 0 00-.97.98c0 1.6-.37 2.35-.81 3.26-.52.98-1.11 2.04-1.11 4.16s.6 3.18 1.1 4.17c.45.9.82 1.66.82 3.25a1 1 0 00.97.98 1 1 0 00.96-.98c0-2.12-.6-3.18-1.11-4.16a6.31 6.31 0 01-.82-3.26c0-1.59.37-2.34.82-3.25.59-.91 1.1-2.05 1.1-4.17zM35.88 70.4v1.29A4.27 4.27 0 0040.1 76h19.02c2.3 0 4.22-1.9 4.22-4.31v-1.3A29.3 29.3 0 0078.2 44.75a1 1 0 00-.96-.99H21.96a1 1 0 00-.96.99A29.15 29.15 0 0035.88 70.4zm25.98-1.44c-.3.15-.52.53-.52.9v1.83a2.33 2.33 0 01-2.3 2.34H40.02a2.33 2.33 0 01-2.3-2.34v-1.82c0-.38-.21-.68-.51-.91A27.2 27.2 0 0123.8 52h51.44a26.96 26.96 0 01-13.4 16.96zm14.36-23.24a28.59 28.59 0 01-.52 4.32H23.37a28.6 28.6 0 01-.52-4.32h53.37z" fill="#234cad"/>
</svg>
